X:1
T:The Flowor O' Northumberland
M:6/8
L:1/8
K:C
 G| c2 ed-B G| A2 F G2 z|G-c c c2 e|d-e f g2 G| c3/2- d/2 c def|g-f e d2 G|\
 cded-B G| A2 F G2e/2-f/2| g3/2- f/2 ed-c B| AFA G2 z|g-e-c c2 e|d-e f g2e/2-f/2|\
g-e cd-e f|g-f e d2 G| cde dBG| A2 F G2||
